icons/svg/drupal.svg

﻿<?xml version="1.0" encoding="utf-8"?>
<!DOCTYPE svg PUBLIC "-//W3C//DTD SVG 1.1//EN" "http://www.w3.org/Graphics/SVG/1.1/DTD/svg11.dtd">
<svg xmlns="http://www.w3.org/2000/svg" xmlns:xlink="http://www.w3.org/1999/xlink" version="1.1" baseProfile="full" width="24" height="24" viewBox="0 0 24.00 24.00" enable-background="new 0 0 24.00 24.00" xml:space="preserve">
	<path fill="#000000" fill-opacity="1" stroke-linejoin="round" d="M 20.4675,14.6509C 20.4675,15.2899 20.2544,16.355 19.8284,17.1006C 19.4024,17.8462 19.0828,18.0592 18.4438,18.0592C 17.6982,17.9527 16.3136,15.8225 15.355,15.716C 14.1834,15.716 11.7337,18.1657 9.71006,18.1657C 8.53846,18.1657 8.11243,17.9527 7.7929,17.7396C 7.15385,17.3136 6.94083,16.6746 6.94083,15.8225C 6.94083,14.2249 8.43195,12.8402 10.2426,12.8402C 12.5858,12.8402 14.1834,15.1834 15.355,15.0769C 16.3136,15.0769 18.2308,13.1598 19.1893,13.1598C 20.1479,12.9467 20.4675,14.0118 20.4675,14.6509 Z M 16.6331,5.27811C 15.568,4.63905 14.6095,4.31953 13.5444,3.68047C 12.9053,3.25444 12.0533,2.29586 11.3077,1.44379C 10.9882,2.8284 10.7751,3.36095 10.2426,3.78698C 9.17751,4.53255 8.64497,4.85207 7.68639,5.27811C 6.94083,5.70414 3,8.04734 3,13.1598C 3,18.2722 7.36686,22 12.0533,22C 16.8462,22 21,18.4852 21,13.2663C 21.213,8.04734 17.2722,5.70414 16.6331,5.27811 Z "/>
</svg>

<svg xmlns="http://www.w3.org/2000/svg" version="1.1" baseProfile="full" width="24" height="24" viewBox="0 0 24.00 24.00" xml:space="preserve"><path fill="#000" fill-opacity="1" stroke-linejoin="round" d="M20.468 14.65c0 .64-.214 1.705-.64 2.45-.426.746-.745.96-1.384.96-.746-.107-2.13-2.237-3.09-2.344-1.17 0-3.62 2.45-5.644 2.45-1.172 0-1.598-.213-1.917-.426-.64-.426-.852-1.065-.852-1.917 0-1.598 1.492-2.983 3.303-2.983 2.343 0 3.94 2.343 5.112 2.237.96 0 2.876-1.917 3.834-1.917.958-.213 1.277.852 1.277 1.49zM16.633 5.28c-1.065-.64-2.023-.958-3.09-1.598-.638-.426-1.49-1.384-2.235-2.236-.32 1.384-.533 1.917-1.065 2.343-1.065.746-1.598 1.065-2.557 1.49C6.94 5.705 3 8.048 3 13.16 3 18.272 7.367 22 12.053 22 16.846 22 21 18.485 21 13.266c.213-5.22-3.728-7.562-4.367-7.988z"/></svg>
